X:18582
T:Wellington Hornpipe. BF13.073
M:4/4
Q:160
C:In hand "B"
S:MS13,c1850,Lakes,Browne Coll..
R:Hornpipe
O:England
A:Lakes
Z:vmp.Chris Partington
K:G
def|g2g2agfe|dcde dcBA|GBdg edcB|AGAB A2d/e/f|!
g2g2agfe|dcde dcBA|GBdg ecAF|G2G2G2::!
AF|DFAc dAFA|GBdf gdBG|e2e/f/gf2f/g/a|g2g/a/bd2d/e/f|!
g2g2bgfe|dcde dcBA|GBdg ecAF|G2G2G2:|]


